src/images_karasa_jaga_svg/cmd/32/arrowshapes.up-right-arrow-callout.svg

<svg height="32" viewBox="0 0 32 32" width="32" xmlns="http://www.w3.org/2000/svg" xmlns:xlink="http://www.w3.org/1999/xlink"><linearGradient id="a" gradientUnits="userSpaceOnUse" x1=".097652" x2="127.96722" xlink:href="#c" y1="63.761864" y2="63.761864"/><linearGradient id="b"><stop offset="0" stop-color="#fff"/><stop offset=".5" stop-color="#fff"/><stop offset=".85714287" stop-color="#f1f1f1"/><stop offset=".9285714" stop-color="#eaeaea"/><stop offset="1" stop-color="#dfdfdf"/></linearGradient><linearGradient id="c"><stop offset="0" stop-color="#7c9fcf"/><stop offset=".5" stop-color="#7c9ece"/><stop offset="1" stop-color="#7b9dcf"/></linearGradient><linearGradient id="d" gradientTransform="matrix(.42447772 0 0 .25739099 19.05667 47.691242)" gradientUnits="userSpaceOnUse" x1="105.87913" x2="105.87913" xlink:href="#b" y1="172.14572" y2="-45.422112"/><linearGradient id="e" gradientTransform="matrix(0 .40045272 .24282292 0 48.615224 46.543425)" gradientUnits="userSpaceOnUse" x1="113.51296" x2="-86.260933" xlink:href="#b" y1="63.358006" y2="63.358006"/><linearGradient id="f" gradientUnits="userSpaceOnUse" x1="32.001953" x2="95.998047" xlink:href="#c" y1="64" y2="64"/><linearGradient id="g" gradientTransform="matrix(.42447772 0 0 .25739099 19.05667 47.691242)" gradientUnits="userSpaceOnUse" x1="257.29007" x2="-34.753254" xlink:href="#b" y1="62.56263" y2="66.32119"/><g fill-rule="evenodd" transform="scale(.25)"><path d="m36 32.001953a3.998147 3.998147 0 0 0 -3.998047 3.998047v56a3.998147 3.998147 0 0 0 3.998047 3.998047h56a3.998147 3.998147 0 0 0 3.998047-3.998047v-56a3.998147 3.998147 0 0 0 -3.998047-3.998047z" fill="url(#f)"/><g transform="matrix(0 1 -1 0 128 0)"><path d="m53.378906 52h-29.378906v-9.898438c0-4.6001-5.753179-6.563243-8.779297-3.537109-.21784.217424-.409864.459258-.572265.720703l-13.72460988 22.15625c-.37615327.607241-.74358725 1.362455-.81835937 2.476563-.07477212 1.114107.38725464 2.688109 1.37109375 3.671875l-.56640625-.712891 13.39648475 21.498047c.161061.258409.351093.497587.566406.712891 1.695756 1.695762 4.409524 1.765629 6.037109.984375 1.627586-.781255 3.130478-2.269488 3.089844-4.816407v-9.255859h29.378906z" fill="url(#a)"/><path d="m53.378906 55.999999h-33.378906v-13.898438c0-.863129-1.209348-1.450812-1.951172-.708984l-13.7246092 22.156251c-.25343.409123-.3472513.885195-.019531 1.212891l13.3964842 21.498045c.86213.862133 2.313837.0013 2.298828-.939453v-13.320312h33.378906z" fill="url(#g)"/></g><path d="m110.20117 37.083984c-1.77896-.359335-3.10496.190337-4.16015.990235-1.0552.799898-2.1142 2.167808-2.03907 4.177734l-.00195-.150391v9.898438h-29.052734v24h29.052734v9.255859c-.0406 2.546851 1.46224 4.03515 3.08984 4.816407 1.62761.781256 4.34137.71135 6.03711-.984375.2144-.214189.40376-.452042.56446-.708985l13.42773-21.498047-.56445.708985c.96231-.962298 1.42847-2.265994 1.41211-3.484375-.0241-1.764829-.80189-2.570282-.86133-2.666016l-13.75586-22.15625c-.67609-1.088966-1.9607-1.959304-3.14844-2.199219z" fill="url(#a)"/><path d="m74.94726 71.999999h33.05274v13.320312c-.015.940773 1.43669 1.801586 2.29883.939453l13.42773-21.498045c.16385-.163848.24319-.381924.24024-.601563-.003-.219639-.13284-.406883-.25977-.611328l-13.75586-22.156251c-.55337-.891293-1.98341-.153543-1.95117.708984v13.898438h-33.05274z" fill="url(#d)"/><path d="m36 36h56v56h-56z" fill="url(#e)"/></g></svg>

<?xml version="1.0" encoding="UTF-8" standalone="no"?>
<!-- Created with Inkscape (http://www.inkscape.org/) -->

<svg
   xmlns:dc="http://purl.org/dc/elements/1.1/"
   xmlns:cc="http://creativecommons.org/ns#"
   xmlns:rdf="http://www.w3.org/1999/02/22-rdf-syntax-ns#"
   xmlns:svg="http://www.w3.org/2000/svg"
   xmlns="http://www.w3.org/2000/svg"
   xmlns:xlink="http://www.w3.org/1999/xlink"
   xmlns:sodipodi="http://sodipodi.sourceforge.net/DTD/sodipodi-0.dtd"
   xmlns:inkscape="http://www.inkscape.org/namespaces/inkscape"
   version="1.1"
   id="svg2"
   width="128"
   height="128"
   viewBox="0 0 128 128"
   sodipodi:docname="arrowshapes.up-right-arrow-callout.svg"
   inkscape:export-filename="/home/rizmut/Dokumen/Rizmut/Github/libreoffice-style-karasa-jaga/build/images_karasa_jaga/cmd/32/arrowshapes.up-right-arrow-callout.png"
   inkscape:export-xdpi="24"
   inkscape:export-ydpi="24"
   inkscape:version="0.92.3 (unknown)">
  <metadata
     id="metadata8">
    <rdf:RDF>
      <cc:Work
         rdf:about="">
        <dc:format>image/svg+xml</dc:format>
        <dc:type
           rdf:resource="http://purl.org/dc/dcmitype/StillImage" />
        <dc:title></dc:title>
      </cc:Work>
    </rdf:RDF>
  </metadata>
  <defs
     id="defs6">
    <inkscape:perspective
       id="perspective27"
       inkscape:persp3d-origin="64 : 42.666667 : 1"
       inkscape:vp_z="128 : 64 : 1"
       inkscape:vp_y="0 : 1000 : 0"
       inkscape:vp_x="0 : 64 : 1"
       sodipodi:type="inkscape:persp3d" />
    <linearGradient
       id="linearGradient3369">
      <stop
         id="stop3372"
         offset="0"
         style="stop-color:#ffffff;stop-opacity:1;" />
      <stop
         style="stop-color:#ffffff;stop-opacity:1;"
         offset="0.5"
         id="stop3374" />
      <stop
         style="stop-color:#f1f1f1;stop-opacity:1;"
         offset="0.85714287"
         id="stop3376" />
      <stop
         id="stop3378"
         offset="0.9285714"
         style="stop-color:#eaeaea;stop-opacity:1;" />
      <stop
         id="stop3384"
         offset="1"
         style="stop-color:#dfdfdf;stop-opacity:1;" />
    </linearGradient>
    <linearGradient
       id="linearGradient7422">
      <stop
         style="stop-color:#7c9fcf;stop-opacity:1"
         offset="0"
         id="stop7424" />
      <stop
         id="stop5348"
         offset="0.5"
         style="stop-color:#7c9ece;stop-opacity:1" />
      <stop
         id="stop7426"
         offset="1"
         style="stop-color:#7b9dcf;stop-opacity:1" />
    </linearGradient>
    <linearGradient
       y2="388.95178"
       x2="399.77466"
       y1="1324.7792"
       x1="405.94968"
       gradientTransform="matrix(0.08097132,0,0,0.07807154,182.74486,-6.9021226)"
       gradientUnits="userSpaceOnUse"
       id="linearGradient2330"
       xlink:href="#linearGradient7422"
       inkscape:collect="always" />
    <linearGradient
       y2="-45.422112"
       x2="105.87913"
       y1="172.14572"
       x1="105.87913"
       gradientTransform="matrix(0.42447772,0,0,0.25739099,19.05667,47.691242)"
       gradientUnits="userSpaceOnUse"
       id="linearGradient2360"
       xlink:href="#linearGradient3369"
       inkscape:collect="always" />
    <linearGradient
       y2="63.358006"
       x2="-86.260933"
       y1="63.358006"
       x1="113.51296"
       gradientTransform="matrix(0,0.40045272,0.24282292,0,48.615224,46.543425)"
       gradientUnits="userSpaceOnUse"
       id="linearGradient2360-9"
       xlink:href="#linearGradient3369"
       inkscape:collect="always" />
    <linearGradient
       inkscape:collect="always"
       xlink:href="#linearGradient7422"
       id="linearGradient848"
       x1="0.097652279"
       y1="63.761864"
       x2="127.96722"
       y2="63.761864"
       gradientUnits="userSpaceOnUse" />
    <linearGradient
       inkscape:collect="always"
       xlink:href="#linearGradient7422"
       id="linearGradient862"
       x1="32.001953"
       y1="64"
       x2="95.998047"
       y2="64"
       gradientUnits="userSpaceOnUse" />
    <linearGradient
       inkscape:collect="always"
       xlink:href="#linearGradient7422"
       id="linearGradient874"
       gradientUnits="userSpaceOnUse"
       x1="0.097652279"
       y1="63.761864"
       x2="127.96722"
       y2="63.761864" />
    <linearGradient
       inkscape:collect="always"
       xlink:href="#linearGradient3369"
       id="linearGradient876"
       gradientUnits="userSpaceOnUse"
       gradientTransform="matrix(0.42447772,0,0,0.25739099,19.05667,47.691242)"
       x1="257.29007"
       y1="62.56263"
       x2="-34.753254"
       y2="66.32119" />
  </defs>
  <sodipodi:namedview
     pagecolor="#ffffff"
     bordercolor="#666666"
     borderopacity="1"
     objecttolerance="10"
     gridtolerance="10"
     guidetolerance="10"
     inkscape:pageopacity="0"
     inkscape:pageshadow="2"
     inkscape:window-width="1366"
     inkscape:window-height="706"
     id="namedview4"
     showgrid="true"
     inkscape:snap-page="true"
     inkscape:snap-global="true"
     inkscape:zoom="2.8284271"
     inkscape:cx="44.177181"
     inkscape:cy="53.59801"
     inkscape:window-x="0"
     inkscape:window-y="0"
     inkscape:window-maximized="1"
     inkscape:current-layer="svg2"
     showguides="false">
    <inkscape:grid
       type="xygrid"
       id="grid837"
       spacingx="4"
       spacingy="4"
       empspacing="1" />
  </sodipodi:namedview>
  <path
     sodipodi:type="inkscape:offset"
     inkscape:radius="3.9977472"
     inkscape:original="M 36 36 L 36 92 L 92 92 L 92 36 L 36 36 z "
     style="fill:url(#linearGradient862);fill-opacity:1.0;fill-rule:evenodd;stroke:none;stroke-width:4.37077713;stroke-linecap:round;stroke-linejoin:round;stroke-miterlimit:4;stroke-dasharray:none;stroke-opacity:1"
     id="path850"
     d="M 36,32.001953 A 3.998147,3.998147 0 0 0 32.001953,36 V 92 A 3.998147,3.998147 0 0 0 36,95.998047 H 92 A 3.998147,3.998147 0 0 0 95.998047,92 V 36 A 3.998147,3.998147 0 0 0 92,32.001953 Z" />
  <g
     id="g872"
     transform="rotate(90,64,64)">
    <path
       style="fill:url(#linearGradient874);fill-opacity:1;fill-rule:evenodd;stroke:none;stroke-width:4.6329999;stroke-linecap:round;stroke-linejoin:round;stroke-miterlimit:4;stroke-dasharray:none;stroke-opacity:1"
       d="M 53.378906,52 H 24 v -9.898438 c 0,-4.6001 -5.753179,-6.563243 -8.779297,-3.537109 -0.21784,0.217424 -0.409864,0.459258 -0.572265,0.720703 L 0.92382812,61.441406 c -0.37615327,0.607241 -0.74358725,1.362455 -0.81835937,2.476563 -0.07477212,1.114107 0.38725464,2.688109 1.37109375,3.671875 L 0.91015625,66.876953 14.306641,88.375 c 0.161061,0.258409 0.351093,0.497587 0.566406,0.712891 1.695756,1.695762 4.409524,1.765629 6.037109,0.984375 C 22.537742,89.291011 24.040634,87.802778 24,85.255859 V 76 h 29.378906 z"
       id="path868"
       inkscape:connector-curvature="0"
       sodipodi:nodetypes="ccsccssccccscccc" />
    <path
       sodipodi:nodetypes="ccscscccccc"
       inkscape:connector-curvature="0"
       id="path870"
       d="M 53.378906,55.999999 H 20 V 42.101561 c 0,-0.863129 -1.209348,-1.450812 -1.951172,-0.708984 L 4.3242188,63.548828 c -0.25343,0.409123 -0.3472513,0.885195 -0.019531,1.212891 L 17.701172,86.259764 c 0.86213,0.862133 2.313837,0.0013 2.298828,-0.939453 V 71.999999 h 33.378906 z"
       style="fill:url(#linearGradient876);fill-opacity:1;fill-rule:evenodd;stroke:none;stroke-width:4.6329999;stroke-linecap:round;stroke-linejoin:round;stroke-miterlimit:4;stroke-dasharray:none;stroke-opacity:1" />
  </g>
  <g
     id="g866">
    <path
       style="fill:url(#linearGradient848);fill-opacity:1;fill-rule:evenodd;stroke:none;stroke-width:4.6329999;stroke-linecap:round;stroke-linejoin:round;stroke-miterlimit:4;stroke-dasharray:none;stroke-opacity:1"
       d="m 110.20117,37.083984 c -1.77896,-0.359335 -3.10496,0.190337 -4.16015,0.990235 -1.0552,0.799898 -2.1142,2.167808 -2.03907,4.177734 L 104,42.101562 V 52 H 74.947266 V 76 H 104 v 9.255859 c -0.0406,2.546851 1.46224,4.03515 3.08984,4.816407 1.62761,0.781256 4.34137,0.71135 6.03711,-0.984375 0.2144,-0.214189 0.40376,-0.452042 0.56446,-0.708985 l 13.42773,-21.498047 -0.56445,0.708985 c 0.96231,-0.962298 1.42847,-2.265994 1.41211,-3.484375 -0.0241,-1.764829 -0.80189,-2.570282 -0.86133,-2.666016 l -13.75586,-22.15625 c -0.67609,-1.088966 -1.9607,-1.959304 -3.14844,-2.199219 z"
       id="path838"
       inkscape:connector-curvature="0"
       sodipodi:nodetypes="cccccccccccccccccc" />
    <path
       style="fill:url(#linearGradient2360);fill-opacity:1;fill-rule:evenodd;stroke:none;stroke-width:4.6329999;stroke-linecap:round;stroke-linejoin:round;stroke-miterlimit:4;stroke-dasharray:none;stroke-opacity:1"
       d="M 74.94726,71.999999 H 108 v 13.320312 c -0.015,0.940773 1.43669,1.801586 2.29883,0.939453 l 13.42773,-21.498045 c 0.16385,-0.163848 0.24319,-0.381924 0.24024,-0.601563 -0.003,-0.219639 -0.13284,-0.406883 -0.25977,-0.611328 L 109.95117,41.392577 C 109.3978,40.501284 107.96776,41.239034 108,42.101561 V 55.999999 H 74.94726 Z"
       id="rect2326"
       inkscape:connector-curvature="0"
       sodipodi:nodetypes="cccccssssccc" />
  </g>
  <path
     inkscape:connector-curvature="0"
     id="rect2326-4"
     d="M 36,36 H 92 V 92 H 36 Z"
     style="fill:url(#linearGradient2360-9);fill-opacity:1;fill-rule:evenodd;stroke:none;stroke-width:4.37077713;stroke-linecap:round;stroke-linejoin:round;stroke-miterlimit:4;stroke-dasharray:none;stroke-opacity:1"
     sodipodi:nodetypes="ccccc" />
  <g
     transform="matrix(0,0.57912965,0.57912965,0,27.114229,-2.9133545)"
     inkscape:label="Livello 1"
     id="g1544" />
  <g
     transform="matrix(0,-0.57912965,0.57912965,0,27.114229,130.91165)"
     inkscape:label="Livello 1"
     id="g1599" />
</svg>
